Simply white circles/scalable/places/folder-remote.svg

<?xml version="1.0" encoding="UTF-8" standalone="no"?>
<!-- Created with Inkscape (http://www.inkscape.org/) -->

<svg
   xmlns:dc="http://purl.org/dc/elements/1.1/"
   xmlns:cc="http://creativecommons.org/ns#"
   xmlns:rdf="http://www.w3.org/1999/02/22-rdf-syntax-ns#"
   xmlns:svg="http://www.w3.org/2000/svg"
   xmlns="http://www.w3.org/2000/svg"
   xmlns:sodipodi="http://sodipodi.sourceforge.net/DTD/sodipodi-0.dtd"
   xmlns:inkscape="http://www.inkscape.org/namespaces/inkscape"
   width="48"
   height="48"
   viewBox="0 0 12.7 12.7"
   version="1.1"
   id="svg829"
   inkscape:version="0.92.3 (2405546, 2018-03-11)"
   sodipodi:docname="folder-remote.svg">
  <defs
     id="defs823" />
  <sodipodi:namedview
     id="base"
     pagecolor="#ffffff"
     bordercolor="#666666"
     borderopacity="1.0"
     inkscape:pageopacity="0.0"
     inkscape:pageshadow="2"
     inkscape:zoom="3.6239223"
     inkscape:cx="-80.38768"
     inkscape:cy="19.28934"
     inkscape:document-units="mm"
     inkscape:current-layer="layer1"
     showgrid="false"
     showguides="true"
     inkscape:guide-bbox="true"
     inkscape:window-width="1366"
     inkscape:window-height="719"
     inkscape:window-x="0"
     inkscape:window-y="25"
     inkscape:window-maximized="1"
     scale-x="1.9"
     units="px" />
  <metadata
     id="metadata826">
    <rdf:RDF>
      <cc:Work
         rdf:about="">
        <dc:format>image/svg+xml</dc:format>
        <dc:type
           rdf:resource="http://purl.org/dc/dcmitype/StillImage" />
        <dc:title></dc:title>
      </cc:Work>
    </rdf:RDF>
  </metadata>
  <g
     inkscape:label="Capa 1"
     inkscape:groupmode="layer"
     id="layer1"
     transform="translate(0,-284.3)">
    <path
       style="fill:#e6e6e6;fill-opacity:1;stroke-width:0.52516764"
       d="M 23.978516 0.27539062 A 23.770509 23.770509 0 0 0 0.20703125 24.046875 A 23.770509 23.770509 0 0 0 23.978516 47.816406 A 23.770509 23.770509 0 0 0 47.748047 24.046875 A 23.770509 23.770509 0 0 0 23.978516 0.27539062 z M 23.910156 3.8144531 A 20.436071 20.436071 0 0 1 44.345703 24.25 A 20.436071 20.436071 0 0 1 23.910156 44.685547 A 20.436071 20.436071 0 0 1 3.4726562 24.25 A 20.436071 20.436071 0 0 1 23.910156 3.8144531 z M 12.257812 9.6835938 C 10.220756 9.6835938 8.5800781 11.326267 8.5800781 13.363281 L 8.5800781 35.242188 C 8.5800781 37.279202 10.220756 38.917969 12.257812 38.917969 L 35.761719 38.917969 C 37.798779 38.917969 39.435547 37.279202 39.435547 35.242188 L 39.435547 13.363281 C 39.435547 11.326267 37.798779 9.6835938 35.761719 9.6835938 L 12.257812 9.6835938 z M 13.787109 11.451172 L 34.371094 11.451172 C 36.154964 11.451172 37.587891 12.886098 37.587891 14.669922 L 37.587891 33.830078 C 37.587891 35.61394 36.154964 37.050781 34.371094 37.050781 L 13.787109 37.050781 C 12.003233 37.050781 10.564453 35.61394 10.564453 33.830078 L 10.564453 14.669922 C 10.564453 12.886098 12.003233 11.451172 13.787109 11.451172 z M 22.839844 17.845703 C 22.096516 17.845703 21.496094 18.44423 21.496094 19.185547 L 21.496094 19.537109 C 21.496094 19.934149 21.169062 20.176294 20.865234 20.154297 L 19.052734 20.154297 C 18.309406 20.154297 17.705078 20.965438 17.705078 21.708984 L 17.705078 29.197266 C 17.705078 29.938318 18.309365 30.537109 19.052734 30.537109 L 28.998047 30.537109 C 29.739259 30.537109 30.34375 29.938733 30.34375 29.197266 L 30.34375 21.708984 C 30.34375 20.965438 29.739233 20.154297 28.998047 20.154297 L 27.183594 20.154297 C 26.817305 20.154297 26.552734 19.861793 26.552734 19.521484 L 26.552734 19.183594 C 26.552734 18.442504 25.950334 17.845703 25.207031 17.845703 L 22.839844 17.845703 z M 19.267578 25.318359 L 21.279297 25.318359 L 21.279297 28.728516 L 19.267578 28.728516 L 19.267578 25.318359 z M 21.679688 25.318359 L 23.689453 25.318359 L 23.689453 28.728516 L 21.679688 28.728516 L 21.679688 25.318359 z M 24.119141 25.318359 L 26.128906 25.318359 L 26.128906 28.728516 L 24.119141 28.728516 L 24.119141 25.318359 z M 26.525391 25.318359 L 28.541016 25.318359 L 28.541016 28.728516 L 26.525391 28.728516 L 26.525391 25.318359 z "
       transform="matrix(0.26458333,0,0,0.26458333,0,284.3)"
       id="path832" />
  </g>
</svg>

<?xml version="1.0" encoding="UTF-8" standalone="no"?>
<svg
   xmlns:dc="http://purl.org/dc/elements/1.1/"
   xmlns:cc="http://creativecommons.org/ns#"
   xmlns:rdf="http://www.w3.org/1999/02/22-rdf-syntax-ns#"
   xmlns:svg="http://www.w3.org/2000/svg"
   xmlns="http://www.w3.org/2000/svg"
   xmlns:sodipodi="http://sodipodi.sourceforge.net/DTD/sodipodi-0.dtd"
   xmlns:inkscape="http://www.inkscape.org/namespaces/inkscape"
   width="48"
   height="48"
   version="1.1"
   viewBox="0 0 12.7 12.7"
   id="svg8"
   sodipodi:docname="folder-remote.svg"
   inkscape:version="0.92.3 (2405546, 2018-03-11)">
  <defs
     id="defs12" />
  <sodipodi:namedview
     pagecolor="#ffffff"
     bordercolor="#666666"
     borderopacity="1"
     objecttolerance="10"
     gridtolerance="10"
     guidetolerance="10"
     inkscape:pageopacity="0"
     inkscape:pageshadow="2"
     inkscape:window-width="883"
     inkscape:window-height="480"
     id="namedview10"
     showgrid="false"
     inkscape:zoom="4.9166667"
     inkscape:cx="24"
     inkscape:cy="24"
     inkscape:window-x="0"
     inkscape:window-y="25"
     inkscape:window-maximized="0"
     inkscape:current-layer="svg8" />
  <metadata
     id="metadata2">
    <rdf:RDF>
      <cc:Work
         rdf:about="">
        <dc:format>image/svg+xml</dc:format>
        <dc:type
           rdf:resource="http://purl.org/dc/dcmitype/StillImage" />
        <dc:title></dc:title>
      </cc:Work>
    </rdf:RDF>
  </metadata>
  <g
     transform="translate(0,-284.3)"
     id="g6"
     style="fill:#e6e6e6">
    <path
       transform="matrix(.26458 0 0 .26458 0 284.3)"
       d="m23.979 0.27539a23.771 23.771 0 0 0 -23.771 23.771 23.771 23.771 0 0 0 23.771 23.77 23.771 23.771 0 0 0 23.77 -23.77 23.771 23.771 0 0 0 -23.77 -23.771zm-0.06836 3.5391a20.436 20.436 0 0 1 20.436 20.436 20.436 20.436 0 0 1 -20.436 20.436 20.436 20.436 0 0 1 -20.437 -20.436 20.436 20.436 0 0 1 20.437 -20.436zm-11.652 5.8691c-2.0371 0-3.6777 1.6427-3.6777 3.6797v21.879c0 2.037 1.6407 3.6758 3.6777 3.6758h23.504c2.0371 0 3.6738-1.6388 3.6738-3.6758v-21.879c0-2.037-1.6368-3.6797-3.6738-3.6797h-23.504zm1.5293 1.7676h20.584c1.7839 0 3.2168 1.4349 3.2168 3.2188v19.16c0 1.7839-1.4329 3.2207-3.2168 3.2207h-20.584c-1.7839 0-3.2227-1.4368-3.2227-3.2207v-19.16c0-1.7838 1.4388-3.2188 3.2227-3.2188zm9.0527 6.3945c-0.74333 0-1.3438 0.59853-1.3438 1.3398v0.35156c0 0.39704-0.32703 0.63918-0.63086 0.61719h-1.8125c-0.74333 0-1.3477 0.81114-1.3477 1.5547v7.4883c0 0.74105 0.60429 1.3398 1.3477 1.3398h9.9453c0.74121 0 1.3457-0.59838 1.3457-1.3398v-7.4883c0-0.74355-0.60452-1.5547-1.3457-1.5547h-1.8145c-0.36629 0-0.63086-0.2925-0.63086-0.63281v-0.33789c0-0.74109-0.6024-1.3379-1.3457-1.3379h-2.3672zm-3.5723 7.4727h2.0117v3.4102h-2.0117v-3.4102zm2.4121 0h2.0098v3.4102h-2.0098v-3.4102zm2.4395 0h2.0098v3.4102h-2.0098v-3.4102zm2.4062 0h2.0156v3.4102h-2.0156v-3.4102z"
       fill="#1a1a1a"
       stroke-width=".52517"
       id="path4"
       style="fill:#e6e6e6" />
  </g>
</svg>
